Origami/24x24/apps/astromenace.svg

<svg width="24" height="24" version="1.1" viewBox="0 0 24 24" xmlns="http://www.w3.org/2000/svg">
 <rect transform="matrix(0,-1,-1,0,0,0)" x="-22" y="-22" width="20" height="20" rx="1" ry="1" style="fill:#345784"/>
 <path d="m3 1.9999998c-0.554 0-1 0.446-1 1v0.5c0-0.554 0.446-1 1-1h18c0.554 0 1 0.446 1 1v-0.5c0-0.554-0.446-1-1-1z" style="fill:#ffffff;opacity:.1"/>
 <path d="m3 22.5c-0.554 0-1-0.446-1-1v-0.5c0 0.554 0.446 1 1 1h18c0.554 0 1-0.446 1-1v0.5c0 0.554-0.446 1-1 1z" style="opacity:.2"/>
 <path d="m12.268555 6.5009765c-0.05213 0.0017-0.106005 0.00692-0.164063 0.01465-0.652974 0.086972-0.832206 0.2449585-1.231445 1.083008-0.269285 0.565257-0.404001 0.7046945-0.750976 0.7792965-1.622071-1.1816555-1.622071 0.622069-1.941407 1.122069-0.4377225-0.3840555-1.4058456-1.002904-1.9679751-1.4671785-0.5025775-0.4150895-1.0000905-0.6665785-1.394573-0.404599-0.3126006 0.2191975-0.5781943 0.689498-0.6748048 1.7685545-0.131985 1.474153 0.00138 2.022032 0.9375003 3.242873 1.05856 1.380517 3.0353651 2.76153 5.5324696 4.495117 1.0816 0.750887 1.988004 1.365233 2.014649 1.365233 0.149771 0-1.4476-2.074965-2.415039-3.136719-1.4458465-1.586798-1.712646-2.080353-1.743891-2.792968-0.0282165-0.643827 0.2474135-1.070313 0.6169375-1.070313 0.1342735 0 0.7419925 0.385419 1.4121095 1.145508 0.558445 0.603445 1.068722 1.240176 1.514649 1.861328 0.944309 1.179113 2.039417 1.329499 2.446289 0.335938 0.394138-0.966783-0.0062-2.664578-0.907227-3.847657-0.10137-0.432673 0.09025-0.498501 0.533203-0.498046 0.560278 5.5e-4 2.124015 0.59275 2.763356 1.146484 0.790081 0.68429 0.923221 0.822049 1.802734 2.566406 0.519168 1.029676 1.034099 1.990021 1.144531 2.133789 0.196669 0.256047 0.200802 0.254631 0.204102-0.06543-0.165962-2.665157-1.090971-5.342712-3.090821-7.1630855-0.338285-0.2956975-1.830618-1.016991-2.705738-1.602539-1.275027-0.853132-1.56968-1.0237665-1.93457-1.011719z" style="opacity:.2"/>
 <path d="m12.268555 6.0009765c-0.05213 0.0017-0.106005 0.00692-0.164063 0.01465-0.652974 0.086972-0.832206 0.2449585-1.231445 1.083008-0.269285 0.565257-0.404001 0.7046945-0.750976 0.7792965-1.622071-1.1816555-1.622071 0.622069-1.941407 1.122069-0.4377225-0.3840555-1.4058456-1.002904-1.9679751-1.4671785-0.5025775-0.4150895-1.0000905-0.6665785-1.394573-0.404599-0.3126006 0.2191975-0.5781943 0.689498-0.6748048 1.7685545-0.131985 1.474153 0.00138 2.022032 0.9375003 3.242873 1.05856 1.380517 3.0353651 2.76153 5.5324696 4.495117 1.0816 0.750887 1.988004 1.365233 2.014649 1.365233 0.149771 0-1.4476-2.074965-2.415039-3.136719-1.4458465-1.586798-1.712646-2.080353-1.743891-2.792968-0.0282165-0.643827 0.2474135-1.070313 0.6169375-1.070313 0.1342735 0 0.7419925 0.385419 1.4121095 1.145508 0.558445 0.603445 1.068722 1.240176 1.514649 1.861328 0.944309 1.179113 2.039417 1.329499 2.446289 0.335938 0.394138-0.966783-0.0062-2.664578-0.907227-3.847657-0.10137-0.432673 0.09025-0.4985015 0.533203-0.4980465 0.560278 5.5e-4 2.124015 0.5927505 2.763356 1.1464845 0.790081 0.68429 0.923221 0.822049 1.802734 2.566406 0.519168 1.029676 1.034099 1.990021 1.144531 2.133789 0.196669 0.256047 0.200802 0.254631 0.204102-0.06543-0.165962-2.665157-1.090971-5.342712-3.090821-7.1630855-0.338285-0.2956975-1.830618-1.016991-2.705738-1.602539-1.275027-0.853132-1.56968-1.0237665-1.93457-1.011719z" style="fill:#8d8069"/>
 <ellipse transform="matrix(.37859229 -.92556354 .62510084 .780544 0 0)" cx="2.312" cy="19.396" rx="1.045" ry="1.469" style="opacity:.2"/>
 <ellipse transform="matrix(.37859229 -.92556354 .62510084 .780544 0 0)" cx="2.669" cy="19.18" rx="1.045" ry="1.469" style="fill:#ffffff"/>
 <path d="m12.269531 6c-0.05213 0.0017-0.107957 0.007895-0.166015 0.015625-0.652974 0.086972-0.83123 0.2459349-1.230469 1.0839844-0.269285 0.565257-0.403025 0.7046948-0.75 0.7792968-1.6220711-1.1816555-1.6240235 0.6210938-1.9433595 1.1210938-0.4377225-0.3840555-1.4046674-1.0025224-1.9667969-1.4667969-0.5025775-0.4150895-1.0000487-0.6662763-1.3945312-0.4042969-0.3126006 0.2191975-0.5791708 0.6885217-0.6757813 1.7675782-0.0379949 0.4243688-0.0441957 0.7632672-0.0253906 1.0722656 0.0060748-0.184324 0.0056589-0.3518805 0.0253906-0.5722656 0.0966105-1.0790565 0.3631807-1.5483807 0.6757813-1.7675782 0.3944825-0.2619794 0.8919537-0.0107926 1.3945312 0.4042969 0.5621295 0.4642745 1.5290744 1.0827414 1.9667969 1.4667969 0.319336-0.5 0.3212884-2.3027493 1.9433595-1.1210938 0.346975-0.074602 0.480715-0.2140398 0.75-0.7792968 0.399239-0.8380495 0.577495-0.9970124 1.230469-1.0839844 0.058058-0.00773 0.113885-0.013925 0.166015-0.015625 0.36489-0.0120475 0.658567 0.1605399 1.933594 1.0136719 0.87512 0.585548 2.366793 1.305865 2.705078 1.6015625 1.93233 1.7589126 2.854222 4.3175536 3.064453 6.8925776 0.020659-0.018101 0.025823-0.082915 0.027344-0.230468-0.165962-2.665157-1.091947-5.341736-3.091797-7.1621096-0.338285-0.2956975-1.829958-1.0160145-2.705078-1.6015625-1.275027-0.853132-1.568704-1.0257194-1.933594-1.0136719zm1.34375 4.583984c-0.090603 0.070485-0.111232 0.19382-0.060547 0.410157 0.605484 0.79502 0.974927 1.819308 1.039063 2.701171 0.073752-0.940308-0.294455-2.169426-0.978516-3.111328zm-5.1191404 1.646485c-0.0157396 0.106709-0.0308454 0.215378-0.0253906 0.339843 0.031245 0.712615 0.2982941 1.206171 1.744141 2.792969 0.562169 0.616975 1.303052 1.541044 1.824218 2.236328 0.141577 0.093763 0.583977 0.400391 0.591797 0.400391 0.149771 0-1.448576-2.074965-2.416015-3.136719-1.3331682-1.463134-1.6508031-1.999867-1.7187504-2.632812z" style="fill:#ffffff;opacity:.1"/>
</svg>

<svg xmlns="http://www.w3.org/2000/svg" width="24" height="24" version="1.1" viewBox="0 0 24 24">
 <rect style="fill:#345784" width="20" height="20" x="-22" y="-22" rx="1" ry="1" transform="matrix(0,-1,-1,0,0,0)"/>
 <path style="opacity:0.1;fill:#ffffff" d="m 3,1.9999998 c -0.554,0 -1,0.446 -1,1 v 0.5 c 0,-0.554 0.446,-1 1,-1 h 18 c 0.554,0 1,0.446 1,1 v -0.5 c 0,-0.554 -0.446,-1 -1,-1 z"/>
 <path style="opacity:0.2" d="m 3,22.5 c -0.554,0 -1,-0.446 -1,-1 V 21 c 0,0.554 0.446,1 1,1 h 18 c 0.554,0 1,-0.446 1,-1 v 0.5 c 0,0.554 -0.446,1 -1,1 z"/>
 <path style="opacity:0.2" d="m 12.268555,6.5009765 c -0.05213,0.0017 -0.106005,0.00692 -0.164063,0.01465 -0.652974,0.086972 -0.832206,0.2449585 -1.231445,1.083008 C 10.603762,8.1638915 10.469046,8.303329 10.122071,8.377931 8.5,7.1962755 8.5,9 8.180664,9.5 7.7429415,9.1159445 6.7748184,8.497096 6.2126889,8.0328215 5.7101114,7.617732 5.2125984,7.366243 4.8181159,7.6282225 4.5055153,7.84742 4.2399216,8.3177205 4.1433111,9.396777 c -0.131985,1.474153 0.00138,2.022032 0.9375003,3.242873 1.05856,1.380517 3.0353651,2.76153 5.5324696,4.495117 1.0816,0.750887 1.988004,1.365233 2.014649,1.365233 0.149771,0 -1.4476,-2.074965 -2.415039,-3.136719 C 8.7670445,13.776483 8.500245,13.282928 8.469,12.570313 8.4407835,11.926486 8.7164135,11.5 9.0859375,11.5 c 0.1342735,0 0.7419925,0.385419 1.4121095,1.145508 0.558445,0.603445 1.068722,1.240176 1.514649,1.861328 0.944309,1.179113 2.039417,1.329499 2.446289,0.335938 0.394138,-0.966783 -0.0062,-2.664578 -0.907227,-3.847657 -0.10137,-0.432673 0.09025,-0.498501 0.533203,-0.498046 0.560278,5.5e-4 2.124015,0.59275 2.763356,1.146484 0.790081,0.68429 0.923221,0.822049 1.802734,2.566406 0.519168,1.029676 1.034099,1.990021 1.144531,2.133789 0.196669,0.256047 0.200802,0.254631 0.204102,-0.06543 C 19.833722,13.613163 18.908713,10.935608 16.908863,9.1152345 16.570578,8.819537 15.078245,8.0982435 14.203125,7.5126955 12.928098,6.6595635 12.633445,6.488929 12.268555,6.5009765 Z"/>
 <path style="fill:#8d8069" d="m 12.268555,6.0009765 c -0.05213,0.0017 -0.106005,0.00692 -0.164063,0.01465 -0.652974,0.086972 -0.832206,0.2449585 -1.231445,1.083008 C 10.603762,7.6638915 10.469046,7.803329 10.122071,7.877931 8.5,6.6962755 8.5,8.5 8.180664,9 7.7429415,8.6159445 6.7748184,7.997096 6.2126889,7.5328215 5.7101114,7.117732 5.2125984,6.866243 4.8181159,7.1282225 4.5055153,7.34742 4.2399216,7.8177205 4.1433111,8.896777 c -0.131985,1.474153 0.00138,2.022032 0.9375003,3.242873 1.05856,1.380517 3.0353651,2.76153 5.5324696,4.495117 C 11.694881,17.385654 12.601285,18 12.62793,18 12.777701,18 11.18033,15.925035 10.212891,14.863281 8.7670445,13.276483 8.500245,12.782928 8.469,12.070313 8.4407835,11.426486 8.7164135,11 9.0859375,11 c 0.1342735,0 0.7419925,0.385419 1.4121095,1.145508 0.558445,0.603445 1.068722,1.240176 1.514649,1.861328 0.944309,1.179113 2.039417,1.329499 2.446289,0.335938 0.394138,-0.966783 -0.0062,-2.664578 -0.907227,-3.847657 -0.10137,-0.432673 0.09025,-0.4985015 0.533203,-0.4980465 0.560278,5.5e-4 2.124015,0.5927505 2.763356,1.1464845 0.790081,0.68429 0.923221,0.822049 1.802734,2.566406 0.519168,1.029676 1.034099,1.990021 1.144531,2.133789 0.196669,0.256047 0.200802,0.254631 0.204102,-0.06543 C 19.833722,13.113163 18.908713,10.435608 16.908863,8.6152345 16.570578,8.319537 15.078245,7.5982435 14.203125,7.0126955 12.928098,6.1595635 12.633445,5.988929 12.268555,6.0009765 Z"/>
 <ellipse style="opacity:0.2" cx="2.312" cy="19.396" rx="1.045" ry="1.469" transform="matrix(0.37859229,-0.92556354,0.62510084,0.780544,0,0)"/>
 <ellipse style="fill:#ffffff" cx="2.669" cy="19.18" rx="1.045" ry="1.469" transform="matrix(0.37859229,-0.92556354,0.62510084,0.780544,0,0)"/>
 <path style="fill:#ffffff;opacity:0.1" d="M 12.269531 6 C 12.217401 6.0017 12.161574 6.007895 12.103516 6.015625 C 11.450542 6.102597 11.272286 6.2615599 10.873047 7.0996094 C 10.603762 7.6648664 10.470022 7.8043042 10.123047 7.8789062 C 8.5009759 6.6972507 8.4990235 8.5 8.1796875 9 C 7.741965 8.6159445 6.7750201 7.9974776 6.2128906 7.5332031 C 5.7103131 7.1181136 5.2128419 6.8669268 4.8183594 7.1289062 C 4.5057588 7.3481037 4.2391886 7.8174279 4.1425781 8.8964844 C 4.1045832 9.3208532 4.0983824 9.6597516 4.1171875 9.96875 C 4.1232623 9.784426 4.1228464 9.6168695 4.1425781 9.3964844 C 4.2391886 8.3174279 4.5057588 7.8481037 4.8183594 7.6289062 C 5.2128419 7.3669268 5.7103131 7.6181136 6.2128906 8.0332031 C 6.7750201 8.4974776 7.741965 9.1159445 8.1796875 9.5 C 8.4990235 9 8.5009759 7.1972507 10.123047 8.3789062 C 10.470022 8.3043042 10.603762 8.1648664 10.873047 7.5996094 C 11.272286 6.7615599 11.450542 6.602597 12.103516 6.515625 C 12.161574 6.507895 12.217401 6.5017 12.269531 6.5 C 12.634421 6.4879525 12.928098 6.6605399 14.203125 7.5136719 C 15.078245 8.0992199 16.569918 8.8195369 16.908203 9.1152344 C 18.840533 10.874147 19.762425 13.432788 19.972656 16.007812 C 19.993315 15.989711 19.998479 15.924897 20 15.777344 C 19.834038 13.112187 18.908053 10.435608 16.908203 8.6152344 C 16.569918 8.3195369 15.078245 7.5992199 14.203125 7.0136719 C 12.928098 6.1605399 12.634421 5.9879525 12.269531 6 z M 13.613281 10.583984 C 13.522678 10.654469 13.502049 10.777804 13.552734 10.994141 C 14.158218 11.789161 14.527661 12.813449 14.591797 13.695312 C 14.665549 12.755004 14.297342 11.525886 13.613281 10.583984 z M 8.4941406 12.230469 C 8.478401 12.337178 8.4632952 12.445847 8.46875 12.570312 C 8.499995 13.282927 8.7670441 13.776483 10.212891 15.363281 C 10.77506 15.980256 11.515943 16.904325 12.037109 17.599609 C 12.178686 17.693372 12.621086 18 12.628906 18 C 12.778677 18 11.18033 15.925035 10.212891 14.863281 C 8.8797228 13.400147 8.5620879 12.863414 8.4941406 12.230469 z"/>
</svg>
